icon-themes/breeze_svg/cmd/32/togglebreakpoint.svg

<svg viewBox="0 0 32 32" xmlns="http://www.w3.org/2000/svg"><path d="m4 4v24h24v-19h-1v18h-22v-18h16v-5zm9.044922 6c-1.77683 0-2.521484.706366-2.521484 2.509766v2.441406c0 1.1138-.034196 2.404297-1.0156255 2.404297h-.5078125v1.289062h.5078125c.9814795 0 1.0156255 1.290497 1.0156255 2.404297v2.441406c0 1.8034.744654 2.509766 2.521484 2.509766v-1.183594c-1.18455 0-1.201172-.478337-1.201172-2.210937v-2.015625c0-.8309-.204705-2.067378-1.203125-2.580078.99842-.5127 1.203125-1.751032 1.203125-2.582032v-2.033203c0-1.7326.016602-2.210937 1.201172-2.210937zm5.894531 0v1.183594c1.18456 0 1.216797.478337 1.216797 2.210937v2.033203c0 .831.204695 2.069332 1.203125 2.582032-.99843.5127-1.203125 1.749178-1.203125 2.580078v2.015625c0 1.7326-.032197 2.210937-1.216797 2.210937v1.183594c1.77684 0 2.537109-.706366 2.537109-2.509766v-2.441406c0-1.1138.068594-2.404297 1.033204-2.404297h.490234v-1.289062h-.490234c-.96457 0-1.033204-1.290497-1.033204-2.404297v-2.441406c0-1.8034-.760269-2.509766-2.537109-2.509766zm-3.939453 1v2h2v-2zm0 3v11h2v-11z" fill="#4d4d4d"/><path d="m22 4 3 5 3-5z" fill="#f47750"/></svg>

<svg xmlns="http://www.w3.org/2000/svg" viewBox="0 0 32 32">
 <path 
     style="fill:#4d4d4d" 
     d="M 4 4 L 4 28 L 28 28 L 28 9 L 27 9 L 27 27 L 5 27 L 5 9 L 21 9 L 21 4 L 4 4 z M 13.044922 10 C 11.268092 10 10.523438 10.706366 10.523438 12.509766 L 10.523438 14.951172 C 10.523438 16.064972 10.489242 17.355469 9.5078125 17.355469 L 9 17.355469 L 9 18.644531 L 9.5078125 18.644531 C 10.489292 18.644531 10.523438 19.935028 10.523438 21.048828 L 10.523438 23.490234 C 10.523438 25.293634 11.268092 26 13.044922 26 L 13.044922 24.816406 C 11.860372 24.816406 11.84375 24.338069 11.84375 22.605469 L 11.84375 20.589844 C 11.84375 19.758944 11.639045 18.522466 10.640625 18.009766 C 11.639045 17.497066 11.84375 16.258734 11.84375 15.427734 L 11.84375 13.394531 C 11.84375 11.661931 11.860352 11.183594 13.044922 11.183594 L 13.044922 10 z M 18.939453 10 L 18.939453 11.183594 C 20.124013 11.183594 20.15625 11.661931 20.15625 13.394531 L 20.15625 15.427734 C 20.15625 16.258734 20.360945 17.497066 21.359375 18.009766 C 20.360945 18.522466 20.15625 19.758944 20.15625 20.589844 L 20.15625 22.605469 C 20.15625 24.338069 20.124053 24.816406 18.939453 24.816406 L 18.939453 26 C 20.716293 26 21.476562 25.293634 21.476562 23.490234 L 21.476562 21.048828 C 21.476562 19.935028 21.545156 18.644531 22.509766 18.644531 L 23 18.644531 L 23 17.355469 L 22.509766 17.355469 C 21.545196 17.355469 21.476562 16.064972 21.476562 14.951172 L 21.476562 12.509766 C 21.476562 10.706366 20.716293 10 18.939453 10 z M 15 11 L 15 13 L 17 13 L 17 11 L 15 11 z M 15 14 L 15 25 L 17 25 L 17 14 L 15 14 z "
     />
 <path 
     style="fill:#f47750" 
     d="M 22 4 L 25 9 L 28 4 L 22 4 z "
     />
</svg>
